themes/ColwichTheme/static/images/icons/submit.svg

<svg viewBox="0 0 576 512" xmlns="http://www.w3.org/2000/svg"><path d="m528 288h-48v80h16c8.836 0 16 7.164 16 16s-7.164 16-16 16h-416c-8.84 0-16-7.2-16-16s7.164-16 16-16h16v-80h-48c-26.51 0-48 21.5-48 48v96c0 26.5 21.49 48 48 48h480c26.51 0 48-21.49 48-48v-96c0-26.5-21.5-48-48-48zm-271.6-5.8c4.4 2.9 9.8 4.9 14.7 4.9.7813 0 1.606-.0187 2.388-.1125 6.531-.625 12.5-3.906 16.53-9.062l88-112c8.188-10.41 6.375-25.5-4.062-33.69-10.38-8.156-25.5-6.344-33.69 4.062l-71.666 93.2025-37-31.7c-10-8.6-25.2-7.5-33.8 2.6-8.6 10-7.5 25.2 2.6 33.8z"/><path d="m432 32h-288c-26.5 0-48 21.49-48 48v320h384v-320c0-26.51-21.5-48-48-48zm-53.1 134.8-88 112c-4.031 5.156-10 8.438-16.53 9.062-.77-.762-1.67-.762-3.27-.762-5.719 0-11.21-2.019-15.58-5.769l-56-48c-9.22-7.731-10.32-22.931-1.72-32.931 8.656-10.06 23.81-11.19 33.84-2.594l36.97 31.69 72.53-92.28c8.188-10.41 23.31-12.22 33.69-4.062 10.47 8.146 12.27 23.246 4.07 33.646z" opacity=".4"/></svg>

<svg xmlns="http://www.w3.org/2000/svg" viewBox="0 0 576 512"><!--! Font Awesome Pro 6.1.1 by @fontawesome - https://fontawesome.com License - https://fontawesome.com/license (Commercial License) Copyright 2022 Fonticons, Inc. --><defs><style>.fa-secondary{opacity:.4}</style></defs><path class="fa-primary" d="M528 288H480v80h16c8.836 0 16 7.164 16 16s-7.164 16-16 16h-416C71.16 400 64 392.8 64 384s7.164-16 16-16H96V288H48C21.49 288 0 309.5 0 336v96C0 458.5 21.49 480 48 480h480c26.51 0 48-21.49 48-48v-96C576 309.5 554.5 288 528 288zM256.4 282.2C260.8 285.1 266.2 287.1 271.1 287.1c.7813 0 1.606-.0187 2.388-.1125c6.531-.625 12.5-3.906 16.53-9.062l88-112c8.188-10.41 6.375-25.5-4.062-33.69c-10.38-8.156-25.5-6.344-33.69 4.062L268.6 229.5L231.6 197.8C221.6 189.2 206.4 190.3 197.8 200.4C189.2 210.4 190.3 225.6 200.4 234.2L256.4 282.2z"/><path class="fa-secondary" d="M432 32h-288C117.5 32 96 53.49 96 80v320h384v-320C480 53.49 458.5 32 432 32zM378.9 166.8l-88 112c-4.031 5.156-10 8.438-16.53 9.062C273.6 287.1 272.7 287.1 271.1 287.1c-5.719 0-11.21-2.019-15.58-5.769l-56-48C190.3 225.6 189.2 210.4 197.8 200.4c8.656-10.06 23.81-11.19 33.84-2.594l36.97 31.69l72.53-92.28c8.188-10.41 23.31-12.22 33.69-4.062C385.3 141.3 387.1 156.4 378.9 166.8z"/></svg>
